X:1
T:Title
%%score { ( 1 4 5 ) | ( 2 3 ) }
L:1/8
M:4/4
K:Ab
V:1 treble nm="Grand Piano"
V:4 treble 
V:5 treble 
V:2 bass 
V:3 bass 
V:1
 z4 z2[Q:1/4=100] C/FG/ | A2 G2 [DF]2 [B,D]D | [A,C]4- [A,C][K:treble]CDC | %3
 [F,CF]2 [G,B,=E]2 .[A,CEA]2 [G,CEG]2 |[M:5/8] F-F- F3 |[M:1/4] C/FG/ |[M:4/4] A2 G2 [DF]2 [B,D]D | %7
 [A,C]4- [A,C][K:treble]CDC | [F,CF]2 [G,B,=E]2 .[A,CEA]2 [G,CEG]2 |[M:5/8] F-F- F3 | %10
[M:3/8] c[=Ec]d |[M:4/4] [=Ec][B,EB][B,EB][A,EA] [B,EB][A,CA][G,EG][A,CF] | %12
[M:5/8] [B,CG][A,CF][K:bass][G,B,=E] [F,B,D][F,A,C] |[M:3/8][K:treble] c[=Ec]d | %14
[M:4/4] [=Ec][EB][EB][EA] [EB][CA][EG]F |[M:5/8] GF=E D[A,C] |[M:3/8] AGF |[M:4/4] =E2 C2 AA G2 | %18
[M:5/8] [CF]-[CF]- [CF]3 |[M:3/8] ccd |[M:4/4] [C=Ec]2 B2- BBBc | B2 z2 z ccd | [C=Ec]2 B2- BBBc | %23
 B2 z2 z AGF | =E2 C2 A3 [EG]/G/ |[M:3/4] F6 |] %26
V:2
 z4 z2 C,/F,G,/ | [F,A,C]2 [=E,B,C]2 [B,,B,]2 z B, | z2 C,2 F,2 z2 | F,,2 C,2 z A C,2 | %4
[M:5/8] F,,2 C,2 F, |[M:1/4] C,/F,G,/ |[M:4/4] [F,A,C]2 [=E,B,C]2 [B,,B,]2 z B, | z2 C,2 F,2 z2 | %8
 F,,2 C,2 z A C,2 |[M:5/8] F,,2 C,2 F, |[M:3/8] =E z E |[M:4/4] [C,B,]C,C,C, C,C,C,F, | %12
[M:5/8] C,C,C, D,F,, |[M:3/8] =E z E |[M:4/4] [C,B,][C,B,][C,B,][C,A,] [C,B,][C,A,][C,G,][F,A,C] | %15
[M:5/8] [C,B,C][C,A,C][C,G,B,] [D,F,B,][F,,F,] |[M:3/8] [C,A,C][C,G,C][C,F,C] | %17
[M:4/4] [C,G,C]2 [C,G,]2 [C,A,C][C,A,C] [C,=E,C]2 |[M:5/8] z2 C,2 F, |[M:3/8][K:treble] FFF | %20
[M:4/4][K:bass] z2 [B,=E]2- [B,E][B,E][B,E][K:treble][CE] | [F,B,DF]2 F2- FFFF | %22
 z2 [B,=E]2- [B,E][B,E][B,E][K:treble][CE] | [F,B,DF]2 F2- FC z2 | %24
 [C,G,C]2 [C,G,]2 [F,A,C]3 z/ =E/ |[M:3/4] [F,A,C]6 |] %26
V:3
 x8 | z4 z2 [B,,F,]2 | F,,8 | z4 C,2 z2 |[M:5/8] x5 |[M:1/4] x2 |[M:4/4] z4 z2 [B,,F,]2 | F,,8 | %8
 z4 C,2 z2 |[M:5/8] x5 |[M:3/8] z C,2 |[M:4/4] x8 |[M:5/8] x5 |[M:3/8] z C,2 |[M:4/4] x8 | %15
[M:5/8] x5 |[M:3/8] x3 |[M:4/4] x8 |[M:5/8] F,,- F,,3 z |[M:3/8][K:treble] x3 | %20
[M:4/4][K:bass] C,8[K:treble] | z2 [F,A,]2 z4 | C,8[K:treble] | z2 [F,A,]2 z4 | z4 z2 z [C,B,] | %25
[M:3/4] x6 |] %26
V:4
 x8 | x8 | F,2 z2 z4[K:treble] | x8 |[M:5/8] x5 |[M:1/4] x2 |[M:4/4] x8 | F,2 z2 z4[K:treble] | %8
 x8 |[M:5/8] x5 |[M:3/8] x3 |[M:4/4] x8 |[M:5/8] x2[K:bass] x3 |[M:3/8][K:treble] x3 |[M:4/4] x8 | %15
[M:5/8] x5 |[M:3/8] x3 |[M:4/4] x8 |[M:5/8] F,2 z z2 |[M:3/8] x3 |[M:4/4] x8 | z2 A4 z2 | x8 | %23
 z2 A4 z2 | x8 |[M:3/4] x6 |] %26
V:5
 x8 | x8 | x5[K:treble] x3 | x8 |[M:5/8] x5 |[M:1/4] x2 |[M:4/4] x8 | x5[K:treble] x3 | x8 | %9
[M:5/8] x5 |[M:3/8] x3 |[M:4/4] x8 |[M:5/8] x2[K:bass] x3 |[M:3/8][K:treble] x3 |[M:4/4] x8 | %15
[M:5/8] x5 |[M:3/8] x3 |[M:4/4] x8 |[M:5/8] x5 |[M:3/8] x3 |[M:4/4] x8 | z4 F,2 z2 | x8 | %23
 z4 F,2 z2 | x8 |[M:3/4] x6 |] %26

